;FLAVOR:Marlin
;TIME:1645
;Filament used: 2.04579m
;Layer height: 0.28
;MINX:111.5
;MINY:122
;MINZ:0.28
;MAXX:188.5
;MAXY:178
;MAXZ:8.12
;Generated with Cura_SteamEngine 4.12.1
M82 ;absolute extrusion mode
M201 X500.00 Y500.00 Z100.00 E5000.00 ;Setup machine max acceleration
M203 X500.00 Y500.00 Z10.00 E50.00 ;Setup machine max feedrate
M204 P500.00 R1000.00 T500.00 ;Setup Print/Retract/Travel acceleration
M205 X8.00 Y8.00 Z0.40 E5.00 ;Setup Jerk
M220 S100 ;Reset Feedrate
M221 S100 ;Reset Flowrate

; set temps
M140 S110.0 ; start preheating the bed WITHOUT wait to what is set in Cura
M104 S240.0 ﻿T0 ; start preheating hotend WITHOUT wait to what is set in Cura

; wait for temps
M190 S110.0 ; start heating the bed to what is set in Cura and WAIT
M109 S240.0 ﻿T0 ; start heating hotend to what is set in Cura and WAIT

G28 ;Home
G29 ;Auto bed Level

G92 E0 ;Reset Extruder
G1 Z2.0 F3000 ;Move Z Axis up
G92 E0
G92 E0
G1 F2700 E-5
;LAYER_COUNT:29
;LAYER:0
M107
G0 F6000 X115.386 Y124.627 Z0.28
;TYPE:SKIRT
G1 F2700 E0
G1 F1200 X116.126 Y124.051 E0.04367
G1 X116.912 Y123.539 E0.08735
G1 X117.739 Y123.097 E0.13101
G1 X118.601 Y122.727 E0.17469
G1 X119.491 Y122.431 E0.21836
G1 X120.403 Y122.213 E0.26203
G1 X121.33 Y122.072 E0.30569
G1 X122.201 Y122.013 E0.34634
G1 X122.522 Y122.004 E0.36129
G1 X122.83 Y122 E0.37563
G1 X159.793 Y122 E2.09679
G1 X160.652 Y122.011 E2.13679
G1 X161.589 Y122.064 E2.18049
G1 X162.517 Y122.197 E2.22414
G1 X163.431 Y122.409 E2.26783
G1 X164.323 Y122.697 E2.31148
G1 X165.188 Y123.061 E2.35518
G1 X166.018 Y123.497 E2.39883
G1 X166.809 Y124.002 E2.44253
G1 X167.553 Y124.572 E2.48617
G1 X168.201 Y125.159 E2.52689
G1 X168.81 Y125.759 E2.56669
G1 X169.718 Y126.679 E2.62688
G1 X171.544 Y128.429 E2.74465
G1 X173.418 Y130.126 E2.86238
G1 X175.294 Y131.729 E2.97728
G1 X177.274 Y133.328 E3.09578
G1 X179.283 Y134.857 E3.21334
G1 X181.33 Y136.327 E3.33069
G1 X183.643 Y137.888 E3.46063
G1 X184.397 Y138.445 E3.50428
G1 X185.102 Y139.065 E3.54799
G1 X185.75 Y139.742 E3.59163
G1 X186.339 Y140.472 E3.63531
G1 X186.864 Y141.25 E3.67901
G1 X187.32 Y142.069 E3.72266
G1 X187.705 Y142.924 E3.76632
G1 X188.015 Y143.809 E3.80999
G1 X188.249 Y144.717 E3.85365
G1 X188.405 Y145.642 E3.89733
G1 X188.485 Y146.667 E3.9452
G1 X188.495 Y146.991 E3.9603
G1 X188.5 Y147.33 E3.97608
G1 X188.499 Y155.84 E4.37234
G1 X188.496 Y156.048 E4.38203
G1 X188.497 Y158.206 E4.48252
G1 X188.493 Y158.295 E4.48667
G1 X188.5 Y159.233 E4.53034
G1 X188.499 Y166.415 E4.86477
G1 X188.489 Y167.142 E4.89862
G1 X188.436 Y168.079 E4.94232
G1 X188.304 Y169.007 E4.98597
G1 X188.093 Y169.921 E5.02965
G1 X187.804 Y170.813 E5.07331
G1 X187.441 Y171.678 E5.11699
G1 X187.006 Y172.509 E5.16067
G1 X186.501 Y173.299 E5.20433
G1 X185.931 Y174.044 E5.248
G1 X185.3 Y174.738 E5.29168
G1 X184.611 Y175.375 E5.33537
G1 X183.871 Y175.951 E5.37904
G1 X183.085 Y176.462 E5.42269
G1 X182.258 Y176.904 E5.46636
G1 X181.396 Y177.274 E5.51004
G1 X180.506 Y177.569 E5.5537
G1 X179.594 Y177.788 E5.59737
G1 X178.667 Y177.928 E5.64102
G1 X177.799 Y177.987 E5.68154
G1 X177.479 Y177.996 E5.69644
G1 X177.17 Y178 E5.71083
G1 X123.065 Y177.999 E8.23019
G1 X122.367 Y177.99 E8.26269
G1 X121.431 Y177.938 E8.30634
G1 X120.502 Y177.806 E8.35004
G1 X119.588 Y177.596 E8.3937
G1 X118.695 Y177.309 E8.43738
G1 X117.83 Y176.946 E8.48106
G1 X116.999 Y176.512 E8.52472
G1 X116.208 Y176.008 E8.56839
G1 X115.463 Y175.438 E8.61207
G1 X114.769 Y174.807 E8.65574
G1 X114.132 Y174.12 E8.69937
G1 X113.555 Y173.38 E8.74306
G1 X113.043 Y172.594 E8.78674
G1 X112.6 Y171.767 E8.83043
G1 X112.229 Y170.906 E8.87408
G1 X111.933 Y170.016 E8.91776
G1 X111.714 Y169.104 E8.96143
G1 X111.573 Y168.177 E9.00509
G1 X111.513 Y167.288 E9.04658
G1 X111.504 Y166.955 E9.06209
G1 X111.5 Y166.658 E9.07593
G1 X111.501 Y133.525 E10.61874
G1 X111.51 Y132.86 E10.6497
G1 X111.563 Y131.924 E10.69336
G1 X111.695 Y130.995 E10.73705
G1 X111.906 Y130.081 E10.78073
G1 X112.194 Y129.189 E10.82438
G1 X112.557 Y128.324 E10.86806
G1 X112.992 Y127.493 E10.91173
G1 X113.496 Y126.703 E10.95537
G1 X114.066 Y125.958 E10.99905
G1 X114.698 Y125.264 E11.04275
G1 X115.386 Y124.627 E11.08641
G0 F6000 X115.774 Y124.823
G1 F1200 X116.51 Y124.27 E11.12928
G1 X117.291 Y123.782 E11.17216
G1 X118.111 Y123.364 E11.21502
G1 X118.965 Y123.019 E11.25791
G1 X119.845 Y122.749 E11.30077
G1 X120.745 Y122.557 E11.34362
G1 X121.659 Y122.443 E11.38651
G1 X122.212 Y122.413 E11.4123
G1 X122.533 Y122.404 E11.42725
G1 X122.83 Y122.4 E11.44108
G1 X159.793 Y122.4 E13.16223
G1 X160.647 Y122.411 E13.202
G1 X161.566 Y122.464 E13.24487
G1 X162.477 Y122.597 E13.28774
G1 X163.373 Y122.808 E13.3306
G1 X164.247 Y123.096 E13.37345
G1 X165.094 Y123.459 E13.41636
G1 X165.905 Y123.894 E13.45921
G1 X166.676 Y124.398 E13.5021
G1 X167.4 Y124.966 E13.54495
G1 X167.921 Y125.445 E13.57791
G1 X168.525 Y126.04 E13.61739
G1 X169.439 Y126.966 E13.67797
G1 X171.262 Y128.714 E13.79557
G1 X173.138 Y130.412 E13.9134
G1 X175.046 Y132.043 E14.03028
G1 X177.048 Y133.659 E14.15008
G1 X179.03 Y135.168 E14.26607
G1 X181.096 Y136.651 E14.38449
G1 X183.419 Y138.219 E14.515
G1 X184.159 Y138.767 E14.55788
G1 X184.849 Y139.377 E14.60076
G1 X185.483 Y140.044 E14.64361
G1 X186.057 Y140.764 E14.68649
G1 X186.567 Y141.531 E14.72938
G1 X187.007 Y142.339 E14.77222
G1 X187.376 Y143.183 E14.81511
G1 X187.671 Y144.055 E14.85797
G1 X187.889 Y144.95 E14.90087
G1 X188.028 Y145.86 E14.94373
G1 X188.085 Y146.679 E14.98196
G1 X188.095 Y147.003 E14.99705
G1 X188.1 Y147.33 E15.01228
G1 X188.099 Y155.834 E15.40826
G1 X188.096 Y156.042 E15.41795
G1 X188.097 Y158.206 E15.51872
G1 X188.093 Y158.294 E15.52282
G1 X188.1 Y159.236 E15.56668
G1 X188.099 Y166.41 E15.90073
G1 X188.089 Y167.137 E15.93459
G1 X188.036 Y168.056 E15.97745
G1 X187.904 Y168.967 E16.02032
G1 X187.693 Y169.863 E16.06318
G1 X187.406 Y170.738 E16.10606
G1 X187.043 Y171.584 E16.14892
G1 X186.609 Y172.396 E16.1918
G1 X186.105 Y173.167 E16.23469
G1 X185.537 Y173.891 E16.27754
G1 X184.908 Y174.563 E16.3204
G1 X184.223 Y175.178 E16.36326
G1 X183.487 Y175.731 E16.40613
G1 X182.706 Y176.219 E16.44901
G1 X181.886 Y176.637 E16.49187
G1 X181.032 Y176.982 E16.53476
G1 X180.152 Y177.251 E16.5776
G1 X179.251 Y177.444 E16.62051
G1 X178.338 Y177.557 E16.66335
G1 X177.788 Y177.587 E16.689
G1 X177.468 Y177.596 E16.7039
G1 X177.17 Y177.6 E16.71778
G1 X123.07 Y177.599 E19.2369
G1 X122.372 Y177.59 E19.26941
G1 X121.453 Y177.538 E19.31227
G1 X120.542 Y177.407 E19.35513
G1 X119.646 Y177.197 E19.39798
G1 X118.771 Y176.91 E19.44086
G1 X117.924 Y176.548 E19.48375
G1 X117.112 Y176.114 E19.52662
G1 X116.341 Y175.612 E19.56946
G1 X115.616 Y175.044 E19.61235
G1 X114.943 Y174.415 E19.65524
G1 X114.328 Y173.731 E19.69807
G1 X113.774 Y172.996 E19.74093
G1 X113.286 Y172.215 E19.78381
G1 X112.867 Y171.395 E19.82669
G1 X112.521 Y170.542 E19.86955
G1 X112.251 Y169.662 E19.91241
G1 X112.058 Y168.761 E19.95532
G1 X111.944 Y167.848 E19.99816
G1 X111.913 Y167.277 E20.02479
G1 X111.904 Y166.944 E20.0403
G1 X111.9 Y166.658 E20.05362
G1 X111.901 Y133.531 E21.59615
G1 X111.91 Y132.866 E21.62712
G1 X111.962 Y131.946 E21.67003
G1 X112.094 Y131.035 E21.71289
G1 X112.305 Y130.139 E21.75575
G1 X112.592 Y129.264 E21.79863
G1 X112.955 Y128.418 E21.8415
G1 X113.389 Y127.606 E21.88437
G1 X113.892 Y126.835 E21.92724
G1 X114.461 Y126.111 E21.97011
G1 X115.089 Y125.439 E22.01294
G1 X115.774 Y124.823 E22.05584
G0 F6000 X116.162 Y125.024
G1 F1200 X116.894 Y124.494 E22.09792
G1 X117.669 Y124.031 E22.13996
G1 X118.482 Y123.638 E22.18201
G1 X119.327 Y123.318 E22.22408
G1 X120.196 Y123.075 E22.2661
G1 X121.084 Y122.909 E22.30816
G1 X122.223 Y122.813 E22.36139
G1 X122.544 Y122.804 E22.37634
G1 X122.83 Y122.8 E22.38966
G1 X159.793 Y122.8 E24.11081
G1 X160.641 Y122.811 E24.1503
G1 X161.543 Y122.864 E24.19237
G1 X162.436 Y122.996 E24.23441
G1 X163.314 Y123.207 E24.27645
G1 X164.17 Y123.495 E24.31851
G1 X164.997 Y123.857 E24.36054
G1 X165.789 Y124.291 E24.4026
G1 X166.54 Y124.793 E24.44466
G1 X167.243 Y125.36 E24.48671
G1 X167.64 Y125.73 E24.51198
G1 X168.241 Y126.321 E24.55123
G1 X169.161 Y127.253 E24.61221
G1 X171 Y129.016 E24.73084
G1 X172.874 Y130.712 E24.84853
G1 X174.819 Y132.375 E24.96769
G1 X176.778 Y133.956 E25.08491
G1 X178.799 Y135.496 E25.20322
G1 X180.852 Y136.969 E25.32088
G1 X183.196 Y138.551 E25.45256
G1 X183.921 Y139.089 E25.4946
G1 X184.596 Y139.689 E25.53665
G1 X185.216 Y140.346 E25.57871
G1 X185.774 Y141.055 E25.62073
G1 X186.268 Y141.812 E25.66282
G1 X186.693 Y142.608 E25.70483
G1 X187.046 Y143.44 E25.74692
G1 X187.324 Y144.299 E25.78896
G1 X187.525 Y145.179 E25.83099
G1 X187.647 Y146.074 E25.87305
G1 X187.685 Y146.691 E25.90184
G1 X187.695 Y147.015 E25.91693
G1 X187.7 Y147.33 E25.9316
G1 X187.699 Y155.828 E26.3273
G1 X187.696 Y156.036 E26.33699
G1 X187.697 Y158.206 E26.43803
G1 X187.693 Y158.293 E26.44209
G1 X187.7 Y159.239 E26.48614
G1 X187.699 Y166.404 E26.81977
G1 X187.689 Y167.131 E26.85363
G1 X187.637 Y168.033 E26.8957
G1 X187.505 Y168.926 E26.93773
G1 X187.294 Y169.805 E26.97982
G1 X187.007 Y170.661 E27.02186
G1 X186.645 Y171.488 E27.0639
G1 X186.211 Y172.28 E27.10595
G1 X185.709 Y173.031 E27.14802
G1 X185.143 Y173.734 E27.19004
G1 X184.516 Y174.385 E27.23213
G1 X183.835 Y174.977 E27.27414
G1 X183.104 Y175.507 E27.31619
G1 X182.328 Y175.97 E27.35827
G1 X181.515 Y176.363 E27.40031
G1 X180.67 Y176.683 E27.44239
G1 X179.801 Y176.926 E27.4844
G1 X178.913 Y177.091 E27.52646
G1 X177.777 Y177.187 E27.57955
G1 X177.457 Y177.196 E27.59445
G1 X177.17 Y177.2 E27.60782
G1 X123.075 Y177.199 E30.12671
G1 X122.377 Y177.19 E30.15921
G1 X121.476 Y177.139 E30.20123
G1 X120.582 Y177.007 E30.24331
G1 X119.704 Y176.798 E30.28534
G1 X118.847 Y176.511 E30.32742
G1 X118.02 Y176.15 E30.36944
G1 X117.227 Y175.717 E30.41151
G1 X116.476 Y175.216 E30.45355
G1 X115.772 Y174.65 E30.49561
G1 X115.121 Y174.024 E30.53766
G1 X114.528 Y173.343 E30.57971
G1 X113.998 Y172.612 E30.62176
G1 X113.534 Y171.837 E30.66382
G1 X113.14 Y171.024 E30.70588
G1 X112.82 Y170.18 E30.74791
G1 X112.576 Y169.31 E30.78999
G1 X112.41 Y168.422 E30.83205
G1 X112.313 Y167.267 E30.88602
G1 X112.304 Y166.934 E30.90154
G1 X112.3 Y166.658 E30.91439
G1 X112.301 Y133.536 E32.45669
G1 X112.31 Y132.871 E32.48766
G1 X112.362 Y131.969 E32.52973
G1 X112.494 Y131.076 E32.57176
G1 X112.704 Y130.198 E32.6138
G1 X112.991 Y129.341 E32.65588
G1 X113.353 Y128.514 E32.69792
G1 X113.786 Y127.722 E32.73995
G1 X114.288 Y126.971 E32.78201
G1 X114.855 Y126.267 E32.8241
G1 X115.481 Y125.617 E32.86612
G1 X116.162 Y125.024 E32.90817
G1 F2700 E27.90817
;MESH:AS5600Holder.stl
G0 F6000 X139.649 Y154.665
G0 X139.649 Y153.23
G0 X147.928 Y153.572
G0 X148.1 Y164.6
;TYPE:WALL-INNER
G1 F2700 E32.90817
G1 F1200 X148.1 Y153.4 E33.42969
G1 X124.9 Y153.4 E34.50998
G1 X124.9 Y164.6 E35.0315
G1 X148.1 Y164.6 E36.11179
G0 F6000 X147.7 Y164.2
;TYPE:WALL-OUTER
G1 F1200 X147.7 Y153.8 E36.59605
G1 X125.3 Y153.8 E37.63909
G1 X125.3 Y164.2 E38.12336
G1 X147.7 Y164.2 E39.1664
G1 F2700 E34.1664
G0 F6000 X148 Y164.2
G0 X148.296 Y164.796
G0 X148.296 Y166.19
G0 X176.9 Y166.4
;TYPE:WALL-INNER
G1 F2700 E39.1664
G1 F1200 X123.1 Y166.4 E41.67155
G1 X123.1 Y133.6 E43.19886
G1 X159.9 Y133.6 E44.91242
G1 X159.9 Y147.6 E45.56432
G1 X176.9 Y147.6 E46.35591
G1 X176.9 Y155.8 E46.73773
G1 X159.9 Y155.8 E47.52932
G1 X159.9 Y159.6 E47.70627
G1 X176.9 Y159.6 E48.49786
G1 X176.9 Y166.4 E48.8145
G0 F6000 X177.3 Y166.8
;TYPE:WALL-OUTER
G1 F1200 X122.7 Y166.8 E51.3569
G1 X122.7 Y133.2 E52.92146
G1 X160.3 Y133.2 E54.67227
G1 X160.3 Y147.2 E55.32417
G1 X177.3 Y147.2 E56.11576
G1 X177.3 Y156.2 E56.53484
G1 X160.3 Y156.2 E57.32643
G1 X160.3 Y159.2 E57.46612
G1 X177.3 Y159.2 E58.25771
G1 X177.3 Y166.8 E58.6116
G0 F6000 X177.03 Y166.53
G0 X176.79 Y166.01
G0 X176.51 Y166.01
;TYPE:SKIN
G1 F1200 X123.49 Y166.01 E61.08044
G1 X123.49 Y133.99 E62.57142
G1 X159.51 Y133.99 E64.24866
G1 X159.51 Y147.99 E64.90056
G1 X176.51 Y147.99 E65.69215
G1 X176.51 Y155.41 E66.03766
G1 X159.51 Y155.41 E66.82925
G1 X159.51 Y159.99 E67.04251
G1 X176.51 Y159.99 E67.83411
G1 X176.51 Y166.01 E68.11442
G1 F2700 E63.11442
G0 F6000 X176.79 Y166.01
G0 X148.21 Y166.19
G0 X148.21 Y164.79
G1 F2700 E68.11442
G0 F6000 X148.49 Y164.99
G1 F1200 X148.49 Y153.01 E68.67226
G1 X124.51 Y153.01 E69.78887
G1 X124.51 Y164.99 E70.34671
G1 X148.49 Y164.99 E71.46332
G1 F2700 E66.46332
G0 F6000 X148.21 Y164.74
G0 X124.704 Y164.796
G0 X124.704 Y166.19
G0 X123.988 Y166.29
G1 F2700 E71.46332
G0 F6000 X123.988 Y165.849
G1 F1200 X123.65 Y165.511 E71.48558
G0 F6000 X123.65 Y164.945
G1 F1200 X124.554 Y165.849 E71.54511
G0 F6000 X125.119 Y165.849
G1 F1200 X124.42 Y165.149 E71.59117
G0 F6000 X124.35 Y165.079
G1 F1200 X123.65 Y164.379 E71.63727
G0 F6000 X123.65 Y163.814
G1 F1200 X124.35 Y164.514 E71.68336
G0 F6000 X124.35 Y163.948
G1 F1200 X123.65 Y163.248 E71.72946
G0 F6000 X123.65 Y162.682
G1 F1200 X124.35 Y163.382 E71.77555
G0 F6000 X124.35 Y162.816
G1 F1200 X123.65 Y162.116 E71.82165
G0 F6000 X123.65 Y161.551
G1 F1200 X124.35 Y162.251 E71.86775
G0 F6000 X124.35 Y161.685
G1 F1200 X123.65 Y160.985 E71.91384
G0 F6000 X123.65 Y160.419
G1 F1200 X124.35 Y161.119 E71.95994
G0 F6000 X124.35 Y160.554
G1 F1200 X123.65 Y159.854 E72.00603
G0 F6000 X123.65 Y159.288
G1 F1200 X124.35 Y159.988 E72.05213
G0 F6000 X124.35 Y159.422
G1 F1200 X123.65 Y158.722 E72.09823
G0 F6000 X123.65 Y158.157
G1 F1200 X124.35 Y158.857 E72.14432
G0 F6000 X124.35 Y158.291
G1 F1200 X123.65 Y157.591 E72.19042
G0 F6000 X123.65 Y157.025
G1 F1200 X124.35 Y157.725 E72.23652
G0 F6000 X124.35 Y157.16
G1 F1200 X123.65 Y156.46 E72.28261
G0 F6000 X123.65 Y155.894
G1 F1200 X124.35 Y156.594 E72.32871
G0 F6000 X124.35 Y156.028
G1 F1200 X123.65 Y155.328 E72.3748
G0 F6000 X123.65 Y154.763
G1 F1200 X124.35 Y155.463 E72.4209
G0 F6000 X124.35 Y154.897
G1 F1200 X123.65 Y154.197 E72.467
G0 F6000 X123.65 Y153.631
G1 F1200 X124.35 Y154.331 E72.51309
G0 F6000 X124.35 Y153.766
G1 F1200 X123.65 Y153.065 E72.55922
G0 F6000 X123.65 Y152.5
G1 F1200 X124.35 Y153.2 E72.60532
G0 F6000 X124.564 Y152.848
G1 F1200 X123.65 Y151.934 E72.66551
G0 F6000 X123.65 Y151.368
G1 F1200 X125.13 Y152.848 E72.76297
G0 F6000 X125.696 Y152.848
G1 F1200 X123.65 Y150.803 E72.89767
G0 F6000 X123.65 Y150.237
G1 F1200 X126.261 Y152.848 E73.06961
G0 F6000 X126.827 Y152.848
G1 F1200 X123.65 Y149.671 E73.27882
G0 F6000 X123.65 Y149.106
G1 F1200 X127.393 Y152.848 E73.52527
G0 F6000 X127.958 Y152.848
G1 F1200 X123.65 Y148.54 E73.80896
G0 F6000 X123.65 Y147.974
G1 F1200 X128.524 Y152.848 E74.12992
G0 F6000 X129.09 Y152.848
G1 F1200 X123.65 Y147.409 E74.48812
G0 F6000 X123.65 Y146.843
G1 F1200 X129.655 Y152.848 E74.88356
G0 F6000 X130.221 Y152.848
G1 F1200 X123.65 Y146.277 E75.31627
G0 F6000 X123.65 Y145.712
G1 F1200 X130.787 Y152.848 E75.78622
G0 F6000 X131.352 Y152.848
G1 F1200 X123.65 Y145.146 E76.29341
G0 F6000 X123.65 Y144.58
G1 F1200 X131.918 Y152.848 E76.83787
G0 F6000 X132.484 Y152.848
G1 F1200 X123.65 Y144.015 E77.41957
G0 F6000 X123.65 Y143.449
G1 F1200 X133.049 Y152.848 E78.03851
G0 F6000 X133.615 Y152.848
G1 F1200 X123.65 Y142.883 E78.69472
G0 F6000 X123.65 Y142.317
G1 F1200 X134.181 Y152.848 E79.38821
G0 F6000 X134.746 Y152.848
G1 F1200 X123.65 Y141.752 E80.1189
G0 F6000 X123.65 Y141.186
G1 F1200 X135.312 Y152.848 E80.88686
G0 F6000 X135.878 Y152.848
G1 F1200 X123.65 Y140.62 E81.6921
G0 F6000 X123.65 Y140.055
G1 F1200 X136.444 Y152.848 E82.53457
G0 F6000 X137.009 Y152.848
G1 F1200 X123.65 Y139.489 E83.41428
G0 F6000 X123.65 Y138.923
G1 F1200 X137.575 Y152.848 E84.33127
G0 F6000 X138.141 Y152.848
G1 F1200 X123.65 Y138.358 E85.28549
G0 F6000 X123.65 Y137.792
G1 F1200 X138.706 Y152.848 E86.27696
G0 F6000 X139.272 Y152.848
G1 F1200 X123.65 Y137.226 E87.30569
G0 F6000 X123.65 Y136.661
G1 F1200 X139.838 Y152.848 E88.37167
G0 F6000 X140.403 Y152.848
G1 F1200 X123.65 Y136.095 E89.47488
G0 F6000 X123.65 Y135.529
G1 F1200 X140.969 Y152.848 E90.61537
G0 F6000 X141.535 Y152.848
G1 F1200 X123.65 Y134.964 E91.79309
G0 F6000 X123.65 Y134.398
G1 F1200 X142.1 Y152.848 E93.00805
G0 F6000 X142.666 Y152.848
G1 F1200 X123.967 Y134.149 E94.23942
G0 F6000 X124.532 Y134.149
